X: 202
T:Cambrian Lyrist. JaW.201
M:6/8
Q:120
S:James Winder Ms, Lancashire, 1835-41
R:Jig
O:England
A:Wyresdale,Lancashire
H:1/8
Z:vmp.Chris Partington, Aug 2004
K:G
G/A/|B2B BAG|d2d dcB|g2g gfe|dcB Adc|!
B2B BAG|d2d dcB|g2g fef|g2g g2:|!
|:g|f2g agf|g2b d2g|f2g agf|gab dec|!
B2B BAG|d2d dcB|g2g fef|g2g g2:|]
